!!!COM: Gaspar van Weerbeke
!!!CDT: ~1450-~1517
!!!OPR: Missa octavi toni
!!!OTL: Sanctus
!!!OMV: 4
!!!AGN: Mass
!!!SCT: Gas0204d
!!!SCA: Gas0204d
!!!voices: 4
**kern	**text	**kern	**text	**kern	**text	**kern	**text
*part4	*part4	*part3	*part3	*part2	*part2	*part1	*part1
*staff4	*staff4	*staff3	*staff3	*staff2	*staff2	*staff1	*staff1
*I"Bassus	*	*I"Tenor	*	*I"Altus	*	*I"Superius	*
*I'B	*	*I'T	*	*I'A	*	*I'S	*
*clefF4	*	*clefGv2	*	*clefGv2	*	*clefG2	*
*k[]	*	*k[]	*	*k[]	*	*k[]	*
*M3/2	*	*M3/2	*	*M3/2	*	*M3/2	*
*met(O)	*	*met(O)	*	*met(O)	*	*met(O)	*
=1	=1	=1	=1	=1	=1	=1	=1
*	*	*col	*	*	*	*	*
2%3r	.	4.G	San-	2%3r	.	[1.g	San-
.	.	8A	.	.	.	.	.
*	*	*Xcol	*	*	*	*	*
.	.	4B	.	.	.	.	.
.	.	4c	.	.	.	.	.
.	.	4B	.	.	.	.	.
.	.	4c	.	.	.	.	.
=2	=2	=2	=2	=2	=2	=2	=2
1.r	.	4G	.	1.r	.	1g]	.
.	.	2c	.	.	.	.	.
.	.	.	.	.	.	.	.
.	.	4d	.	.	.	.	.
.	.	2e	.	.	.	2g	-ctus,
=3	=3	=3	=3	=3	=3	=3	=3
*	*	*	*	*	*	*	*edit
1.r	.	1d	-ctus,	1.r	.	2b	San-
.	.	.	.	.	.	4.a	.
.	.	.	.	.	.	8g	.
.	.	2r	.	.	.	4e	.
.	.	.	.	.	.	[4f	.
=4	=4	=4	=4	=4	=4	=4	=4
*	*	*	*edit	*	*	*	*
1.r	.	2.d	San-	1.r	.	8fL]	.
.	.	.	.	.	.	8gJ	.
.	.	.	.	.	.	2a	.
.	.	8cL	.	.	.	4b	.
.	.	8BJ	.	.	.	.	.
.	.	4A	.	.	.	4cc	.
.	.	[4B	.	.	.	[4dd	.
!!LO:LB:g=original
=5	=5	=5	=5	=5	=5	=5	=5
1.r	.	8BL]	.	1.r	.	8ddL]	.
.	.	8AJ	.	.	.	8ccJ	.
.	.	2d	.	.	.	2a	.
.	.	4B	.	.	.	2g	.
.	.	2A	.	.	.	.	.
.	.	.	.	.	.	4f	.
=6	=6	=6	=6	=6	=6	=6	=6
1.r	.	2G	.	1.r	.	4e	.
.	.	.	.	.	.	2d	.
.	.	4D	.	.	.	.	.
.	.	2G	.	.	.	4B	.
.	.	.	.	.	.	2A	-ctus,
.	.	4F#i	.	.	.	.	.
=7	=7	=7	=7	=7	=7	=7	=7
4.GG	San-	1G	-ctus,	1.r	.	1.r	.
8AA	.	.	.	.	.	.	.
4BB	.	.	.	.	.	.	.
4C	.	.	.	.	.	.	.
4BB	.	[2r	.	.	.	.	.
4C	.	.	.	.	.	.	.
=8	=8	=8	=8	=8	=8	=8	=8
4GG	.	1.ryy	.	1.r	.	1.r	.
2C	.	.	.	.	.	.	.
4D	.	.	.	.	.	.	.
2E	.	.	.	.	.	.	.
=9	=9	=9	=9	=9	=9	=9	=9
*	*	*	*Xedit	*	*	*	*
1D	-ctus,	2B	San-	1.r	.	1.r	.
.	.	4.A	.	.	.	.	.
.	.	8G	.	.	.	.	.
2r	.	4E	.	.	.	.	.
.	.	[4F	.	.	.	.	.
!!LO:LB:g=original
=10	=10	=10	=10	=10	=10	=10	=10
*	*edit	*	*	*	*	*	*
2.D	San-	8FL]	.	1.r	.	1.r	.
.	.	8GJ	.	.	.	.	.
.	.	2A	.	.	.	.	.
4BB	.	4B	.	.	.	.	.
4AA	.	4c	.	.	.	.	.
[4BB	.	[4d	.	.	.	.	.
=11	=11	=11	=11	=11	=11	=11	=11
8BBL]	.	8dL]	.	1.r	.	1.r	.
8AAJ	.	8cJ	.	.	.	.	.
2D	.	2A	.	.	.	.	.
4BB	.	2G	.	.	.	.	.
2AA	.	.	.	.	.	.	.
.	.	4F#i	.	.	.	.	.
=12	=12	=12	=12	=12	=12	=12	=12
*	*	*	*	*	*	*lig	*
*	*	*	*	*	*	*	*Xedit
1GG	-ctus,	2G	-ctus,	1d	San-	1.g	San-
.	.	2r	.	.	.	.	.
*	*Xedit	*	*	*	*	*	*
2G	San-	2B	San-	2e	.	.	.
=13	=13	=13	=13	=13	=13	=13	=13
*lig	*	*	*	*	*	*	*
2F	.	1c	.	2f	.	1a	.
2A	.	.	.	4e	.	.	.
.	.	.	.	4f	.	.	.
*Xlig	*	*	*	*	*	*Xlig	*
2G	.	2d	.	2g	.	2b	.
=14	=14	=14	=14	=14	=14	=14	=14
*lig	*	*lig	*	*	*	*	*
*	*	*col	*	*	*	*	*
*col	*	*	*	*	*	*	*
2C	.	[1.c	.	2e	-ctus,	2cc	-ctus,
*	*	*	*	*	*	*	*edit
2F	.	.	.	4r	.	2.cc	San-
.	.	.	.	4f	San-	.	.
[2C	.	.	.	4e	.	.	.
.	.	.	.	[4g	.	8bL	.
.	.	.	.	.	.	8aJ	.
!!LO:LB:g=original
=15	=15	=15	=15	=15	=15	=15	=15
1.C]	.	2c]	.	8gL]	.	2g	-ctus,
*Xcol	*	*	*	*	*	*	*
*Xlig	*	*	*	*	*	*	*
.	.	.	.	8f	.	.	.
.	.	.	.	8e	.	.	.
.	.	.	.	8dJ	.	.	.
.	.	1e	.	1c	.	4r	.
*	*	*	*	*	*	*	*Xedit
.	.	.	.	.	.	4.cc	San-
.	.	.	.	.	.	8bL	.
.	.	.	.	.	.	8a	.
.	.	.	.	.	.	8gJ	.
=16	=16	=16	=16	=16	=16	=16	=16
2D	-ctus,	1d	.	2A	-ctus,	4f	.
*	*	*Xcol	*	*	*	*	*
.	.	.	.	.	.	4d	.
*	*	*	*	*	*edit	*	*
4r	.	.	.	8DL	San-	2f	.
.	.	.	.	8E	.	.	.
4D	San-	.	.	8F	.	.	.
.	.	.	.	8GJ	.	.	.
*	*	*Xlig	*	*	*	*	*
2AA	.	2c	.	2A	.	2e	.
=17	=17	=17	=17	=17	=17	=17	=17
4D	.	4B	.	4F	.	4d	.
4C	.	4.c	.	4.G	.	4.e	.
2E	.	.	.	.	.	.	.
.	.	8B	.	8AL	.	8f	.
.	.	4G	.	8B	.	2g	.
.	.	.	.	8cJ	.	.	.
2D	.	2A	.	2d	-ctus,	.	.
.	.	.	.	.	.	4f#i	.
=18	=18	=18	=18	=18	=18	=18	=18
4.GG	.	1G	-ctus	4.B	san-	1g	-ctus
8AA	.	.	.	8c	.	.	.
4BB	.	.	.	4d	.	.	.
2C	.	.	.	4.e	.	.	.
.	.	2r	.	.	.	2r	.
.	.	.	.	8d	.	.	.
4D	.	.	.	4f	.	.	.
=19	=19	=19	=19	=19	=19	=19	=19
4C	.	1.r	.	4e	.	1.r	.
2F	.	.	.	2d	.	.	.
4E	.	.	.	2c	.	.	.
2D	.	.	.	.	.	.	.
.	.	.	.	4B	.	.	.
!!LO:PB:g=original
=20	=20	=20	=20	=20	=20	=20	=20
1C	-ctus	2.G	Do-	2c	-ctus	2r	.
*	*	*	*	*	*Xedit	*	*
.	.	.	.	1e	Do-	2r	.
.	.	4G	-mi-	.	.	.	.
[2C	Do-	2c	-nus	.	.	[2e	Do-
=21	=21	=21	=21	=21	=21	=21	=21
4C]	.	2r	.	2.c	.	4e]	.
4C	-mi-	.	.	.	.	4e	-mi-
2.F	-nus	2.A	De-	.	.	2a	-nus
.	.	.	.	2c	-mi-	.	.
.	.	.	.	.	.	2r	.
4D	.	8BL	.	[4d	.	.	.
.	.	8cJ	.	.	.	.	.
=22	=22	=22	=22	=22	=22	=22	=22
4.D	De-	4.d	.	8dL]	.	2.f	De-
.	.	.	.	8cJ	.	.	.
.	.	.	.	2A	.	.	.
8E	.	8c	.	.	.	.	.
2F	.	2A	.	.	.	.	.
.	.	.	.	4c	.	8gL	.
.	.	.	.	.	.	8aJ	.
4G	.	2G	-us,	4B	.	4.b-j	.
4E	.	.	.	4e	.	.	.
.	.	.	.	.	.	8a	.
=23	=23	=23	=23	=23	=23	=23	=23
*	*	*	*edit	*	*	*	*
2F	.	4c	De-	2A	-nus	4a	.
.	.	4A	.	.	.	4cc	.
4G	.	4G	.	4r	.	4b-j	.
4D	.	4A	.	2d	De-	2a	.
2G	.	2B-i	.	.	.	.	.
.	.	.	.	4e	.	4g	.
=24	=24	=24	=24	=24	=24	=24	=24
*	*	*lig	*	*	*	*	*
2F	.	2A	.	2f	.	1a	-us,
2A	.	2c	.	4e	.	.	.
.	.	.	.	4f	.	.	.
*	*	*Xlig	*	*	*	*	*
*	*	*	*	*	*	*	*edit
2G	-us,	2d	.	2g	-us,	2b	De-
!!LO:LB:g=original
=25	=25	=25	=25	=25	=25	=25	=25
*	*edit	*	*	*	*	*	*
4D	De-	4f	.	4r	.	4a	.
*	*	*	*	*	*edit	*	*
2C	.	2e	.	2g	De-	2cc	.
4F	.	2d	.	4f	.	4a	.
2E	.	.	.	4g	.	2g	.
.	.	4c	-us,	4e	.	.	.
=26	=26	=26	=26	=26	=26	=26	=26
2D	.	1.r	.	2f	.	4f	.
.	.	.	.	.	.	4a	.
4E	.	.	.	4e	.	4g	.
4F	.	.	.	2d	.	4f	.
4G	.	.	.	.	.	2e	-us,
4A	.	.	.	4c#i	.	.	.
=27	=27	=27	=27	=27	=27	=27	=27
2D	-us	2r	.	4.d	-us,	4.d	De-
.	.	.	.	8c	.	8e	.
2r	.	4D	De-	4A	.	4f	.
.	.	4E	.	4G	.	4g	.
2r	.	4F	.	4D	De-	4a	.
.	.	4G	.	4E	.	4g	.
=28	=28	=28	=28	=28	=28	=28	=28
2r	.	4A	.	4F	.	4cc	.
.	.	2G	.	4G	.	2b	.
2r	.	.	.	2D	-us	.	.
.	.	4F#j	.	.	.	4a	.
2GG	Sa-	2G	-us	4r	.	2b	-us
.	.	.	.	4G	Sa-	.	.
=29	=29	=29	=29	=29	=29	=29	=29
2F	-ba-	1.r	.	4A	.	2r	.
.	.	.	.	4c	.	.	.
2.G	.	.	.	4B	.	2r	.
.	.	.	.	4G	.	.	.
.	.	.	.	4B	-ba-	4r	.
*	*	*	*	*	*	*	*Xedit
4E	.	.	.	4c	.	4g	Sa-
!!LO:LB:g=original
=30	=30	=30	=30	=30	=30	=30	=30
2F	-oth,	2r	.	2A	-oth,	4a	.
.	.	.	.	.	.	4cc	.
*	*	*	*Xedit	*	*	*	*
2r	.	2d	Sa-	2.G	Sa-	4b	.
.	.	.	.	.	.	4g	.
2r	.	4B	.	.	.	4b	-ba-
.	.	[4A	.	8FL	.	4cc	.
.	.	.	.	8EJ	.	.	.
=31	=31	=31	=31	=31	=31	=31	=31
*	*Xedit	*	*	*	*	*	*edit
2D	Sa-	8AL]	.	2F	-ba-	2a	-oth,
.	.	8GJ	.	.	.	.	.
.	.	4F	.	.	.	.	.
4C	.	8EL	.	2G	-oth,	4r	.
.	.	8DJ	.	.	.	.	.
4BB	.	2G	-ba-	.	.	4g	Sa-
2AA	-ba-	.	.	2r	.	2a	.
.	.	4F#i	.	.	.	.	.
=32	=32	=32	=32	=32	=32	=32	=32
*	*	*	*edit	*	*	*	*
4GG	-oth,	4G	-oth,	2r	.	4b	.
*	*edit	*	*	*	*	*	*
4F	Sa-	4A	.	.	.	4cc	.
*	*	*	*	*	*Xedit	*	*
4G	.	4B	.	4d	Sa-	4b	.
4E	.	4c	.	4e	.	4g	.
2F	.	2A	.	4c	.	4.a	.
.	.	.	.	[4f	.	.	.
.	.	.	.	.	.	8f	.
=33	=33	=33	=33	=33	=33	=33	=33
4.D	-ba-	2.d	Sa-	8fL]	.	4.f	-ba-
.	.	.	.	8e	.	.	.
.	.	.	.	8d	.	.	.
8E	.	.	.	16cL	.	8g	.
.	.	.	.	16BJJ	.	.	.
4F	.	.	.	4A	.	4a	.
4G	.	2d	-ba-	4G	.	4b-i	.
4F	.	.	.	4A	.	4a	.
4G	.	4B-i	.	8B-iL	-ba-	4g	.
.	.	.	.	8GJ	.	.	.
=34	=34	=34	=34	=34	=34	=34	=34
*	*	*	*Xedit	*	*	*	*Xedit
0D;	-oth.	0A;	-oth.	0d;	-oth.	0f;	-oth.
!!LO:LB:g=original
=35||	=35||	=35||	=35||	=35||	=35||	=35||	=35||
*M3/2	*	*M3/2	*	*M3/2	*	*M3/2	*
*met(O)	*	*met(O)	*	*met(O)	*	*met(O)	*
*	*	*	*	*	*	*lig	*
1.r	.	2.d	Ple-	1.r	.	2.f	Ple-
*	*	*	*	*	*	*col	*
.	.	4A	.	.	.	4.a	.
*	*	*	*	*	*	*Xlig	*
.	.	4.d	.	.	.	.	.
.	.	.	.	.	.	8g	.
*	*	*	*	*	*	*Xcol	*
.	.	.	.	.	.	[4f	.
.	.	8c	.	.	.	.	.
=36	=36	=36	=36	=36	=36	=36	=36
1.r	.	4A	.	1.r	.	4f]	.
.	.	4G	.	.	.	4e	.
.	.	4F	.	.	.	4d	.
.	.	4G	.	.	.	2g	-ni
.	.	2A	.	.	.	.	.
.	.	.	.	.	.	4f#i	.
=37	=37	=37	=37	=37	=37	=37	=37
1.r	.	4.G	-ni	1.r	.	2g	sunt
.	.	8A	.	.	.	.	.
.	.	4B	.	.	.	4r	.
.	.	2c	.	.	.	4g	ce-
*	*	*	*	*	*	*lig	*
.	.	.	.	.	.	2a	.
.	.	4A	.	.	.	.	.
=38	=38	=38	=38	=38	=38	=38	=38
1.r	.	2G	sunt	1.r	.	2.b	.
.	.	4r	.	.	.	.	.
*	*	*	*	*	*	*Xlig	*
.	.	4A	ce-	.	.	2cc	.
.	.	4E	.	.	.	.	.
.	.	4F	.	.	.	8bL	.
.	.	.	.	.	.	8aJ	.
=39	=39	=39	=39	=39	=39	=39	=39
1.r	.	2.G	.	1.r	.	2.g	.
.	.	4F	.	.	.	4a	.
.	.	4G	.	.	.	4e	.
.	.	4A	.	.	.	4f	.
!!LO:PB:g=original
=40	=40	=40	=40	=40	=40	=40	=40
1.r	.	4.E	.	1.r	.	4.g	.
.	.	8F	.	.	.	8f	.
.	.	4.G	.	.	.	4.d	.
.	.	8F	.	.	.	8e	.
.	.	4.D	.	.	.	8fL	.
.	.	.	.	.	.	8gJ	.
.	.	.	.	.	.	[4a	.
.	.	8E	.	.	.	.	.
=41	=41	=41	=41	=41	=41	=41	=41
1.r	.	8FL	.	2r	.	8aL]	.
.	.	8GJ	.	.	.	8gJ	.
.	.	4.A	.	.	.	4.cc	.
.	.	.	.	2r	.	.	.
.	.	8GL	.	.	.	8bL	.
.	.	8F#i	.	.	.	8a	.
.	.	8EJ	.	.	.	8gJ	.
.	.	2F#i	.	2c	Et	2a	.
=42	=42	=42	=42	=42	=42	=42	=42
*	*Xedit	*	*	*	*	*	*
2.G	Et	2G	-li	4B	.	2b	-li
.	.	.	.	4.d	ter-	.	.
.	.	4r	.	.	.	2r	.
.	.	.	.	8B	.	.	.
4F	.	4A	et	4c	.	.	.
4.G	ter-	4B	.	4B	.	2r	.
.	.	[4d	ter-	4G	.	.	.
8F	.	.	.	.	.	.	.
=43	=43	=43	=43	=43	=43	=43	=43
4D	.	4d]	.	4F	.	2r	.
4C	.	2A	.	4E	.	.	.
4D	.	.	.	4F	.	2r	.
4BB	.	2G	.	2D	.	.	.
2AA	.	.	.	.	.	4r	.
.	.	4F#i	.	4C	.	4a	et
=44	=44	=44	=44	=44	=44	=44	=44
2GG	-ra,	2G	-ra	2D	.	4b	.
.	.	.	.	.	.	4.dd	ter-
4r	.	2r	.	4G	.	.	.
.	.	.	.	.	.	8cc	.
*	*edit	*	*	*	*	*	*
4D	et	.	.	4F	.	2a	.
*	*	*	*	*lig	*	*	*
2E	.	2r	.	2G	.	.	.
.	.	.	.	.	.	[4g	.
!!LO:LB:g=original
=45	=45	=45	=45	=45	=45	=45	=45
2D	ter-	2r	.	2A	.	4g]	.
.	.	.	.	.	.	4f#i	.
*	*	*	*	*Xlig	*	*	*
2GG	-ra	2.d	glo-	2G	-ra	2g	-ra
2r	.	.	.	[2G	glo-	2r	.
.	.	4d	-ri-	.	.	.	.
=46	=46	=46	=46	=46	=46	=46	=46
*	*Xedit	*	*	*	*	*	*
2.GG	glo-	2d	-a	4G]	.	2.b	glo-
.	.	.	.	4G	-ri-	.	.
.	.	2r	.	2G	-a	.	.
4GG	-ri-	.	.	.	.	4b	-ri-
2GG	-a	2d	tu-	2r	.	2b	-a
=47	=47	=47	=47	=47	=47	=47	=47
2r	.	2d	-a.	2G	tu-	2r	.
2GG	tu-	2r	.	2G	-a.	2b	tu-
2GG	-a.	2d	O-	2g	O-	2b	-a.
=48	=48	=48	=48	=48	=48	=48	=48
2F	O-	2c	-san-	2f	-san-	2a	O-
4G	-san-	4B	.	4d	.	4b	-san-
4F	.	4c	.	4f	.	4a	.
4G	.	4B	.	8dL	.	4b	.
.	.	.	.	8eJ	.	.	.
4F	.	4c	.	4f	.	4a	.
=49	=49	=49	=49	=49	=49	=49	=49
4G	.	4B	.	4d	.	4b	.
4E	.	4c	.	4e	.	4g	.
*	*	*	*	*lig	*	*	*
[1D	-na,	1d	.	2.A	.	[1f#i	-na,
.	.	.	.	[4d	.	.	.
=50	=50	=50	=50	=50	=50	=50	=50
1.D]	.	2A	-na,	4d]	.	2f#]	.
*	*	*	*	*Xlig	*	*	*
.	.	.	.	4c	.	.	.
.	.	2r	.	2A	-na,	4r	.
*	*	*	*	*	*	*	*edit
.	.	.	.	.	.	2d	o-
*	*	*	*	*	*edit	*	*
.	.	2r	.	4B	o-	.	.
.	.	.	.	[4A	-san-	4c	-san-
!!LO:LB:g=original
=51	=51	=51	=51	=51	=51	=51	=51
*	*edit	*	*edit	*	*	*	*
4.D	o-	4.F	o-	8AL]	.	2A	-na,
.	.	.	.	8G	.	.	.
.	.	.	.	8F	.	.	.
8C	.	8G	.	8EJ	.	.	.
4AA	-san-	4A	.	4F	.	2r	.
4GG	.	4B-i	.	4G	.	.	.
2D	-na,	4A	.	2A	.	4.f	o-
.	.	[4d	.	.	.	.	.
.	.	.	.	.	.	8g	.
=52	=52	=52	=52	=52	=52	=52	=52
2r	.	4d]	.	4D	-na,	4a	.
.	.	4G	.	2d	o-	4b-i	.
4D	o-	4F	.	.	.	4a	.
4E	.	4G	.	4c	.	2g	.
*lig	*	*	*	*	*	*	*
2D	-san-	2A	.	[2d	-san-	.	.
.	.	.	.	.	.	4f#i	.
=53	=53	=53	=53	=53	=53	=53	=53
2G	-na,	4B	-san-	2d]	.	4g	-san-
.	.	4G	.	.	.	4e	.
*Xlig	*	*	*	*	*	*	*
4r	.	4A	.	4c	.	4f	.
4E	o-	4G	.	4B	.	4g	.
4D	.	2A	.	2d	-na,	2f	.
4F	.	.	.	.	.	.	.
=54	=54	=54	=54	=54	=54	=54	=54
4E	.	2G	.	4e	o-	2g	-na,
4G	.	.	.	4d	.	.	.
2.D	-san-	1F	-na,	4.f	-san-	1a	o-
.	.	.	.	8e	.	.	.
.	.	.	.	8dL	.	.	.
.	.	.	.	8cJ	.	.	.
4F	.	.	.	4d	.	.	.
=55	=55	=55	=55	=55	=55	=55	=55
2E	.	2G	o-	4e	.	4g	.
.	.	.	.	4c	.	4e	.
2D	.	2A	.	2d	-na,	2f	-san-
4E	.	4c	.	2r	.	4e	.
4D	.	4d	.	.	.	[4a	.
!!LO:LB:g=original
=56	=56	=56	=56	=56	=56	=56	=56
2G	-na,	2B-i	-san-	4r	.	4a]	.
.	.	.	.	4G	o-	4g	.
2D	o-	2A	-na	4F	.	2a	-na
.	.	.	.	4D	.	.	.
4C	-san-	2r	.	4E	.	2r	.
4AA	.	.	.	[4A	.	.	.
=57	=57	=57	=57	=57	=57	=57	=57
*lig	*	*	*	*	*	*	*
2BB-i	-na	1.r	.	4A]	.	2r	.
.	.	.	.	4G	.	.	.
*	*	*	*	*	*	*	*Xedit
2AA	.	.	.	4A	-san-	2.cc	in
.	.	.	.	4.c	.	.	.
*Xlig	*	*	*	*	*	*	*
*	*Xedit	*	*	*	*	*	*
2A	in	.	.	.	.	.	.
.	.	.	.	8dL	.	.	.
.	.	.	.	8e	.	4a	.
.	.	.	.	8fJ	.	.	.
=58	=58	=58	=58	=58	=58	=58	=58
2E	ex-	2r	.	2g	-na	2b	.
*	*	*	*Xedit	*	*	*	*
4.F	-cel-	2.c	in	2r	.	2a	ex-
8G	.	.	.	.	.	.	.
*	*	*	*	*	*Xedit	*	*
4.A	.	.	.	4c	in	4e	.
.	.	4A	.	4d	.	[4a	.
8F	.	.	.	.	.	.	.
=59	=59	=59	=59	=59	=59	=59	=59
2E	-sis,	2B	.	2e	ex-	4a]	.
.	.	.	.	.	.	4g	.
4r	.	4.A	ex-	2c	-cel-	4f	.
*	*edit	*	*	*	*	*	*
2F	ex-	.	.	.	.	2a	.
.	.	8B	.	.	.	.	.
.	.	4c	.	2A	-sis,	.	.
4D	-cel-	[4d	.	.	.	4f	.
=60	=60	=60	=60	=60	=60	=60	=60
2A	-sis,	4d]	.	2r	.	2e	.
.	.	4c	.	.	.	.	.
*	*	*	*	*	*edit	*	*
4r	.	4B	.	4d	in	4.d	.
4G	in	2d	.	4B	.	.	.
.	.	.	.	.	.	8e	.
4D	ex-	.	.	4A	ex-	4f	.
4GG	.	4B	.	4G	.	[4g	-cel-
=61	=61	=61	=61	=61	=61	=61	=61
2D	-cel-	2A	-cel-	2A	-cel-	4g]	.
.	.	.	.	.	.	4f#i	.
0GG	-sis.	0G	-sis.	0B	-sis.	0g	-sis.
!!LO:PB:g=original
=62||	=62||	=62||	=62||	=62||	=62||	=62||	=62||
*M2/2	*	*M2/2	*	*M2/2	*	*M2/2	*
*met(C|)	*	*met(C|)	*	*met(C|)	*	*met(C|)	*
*	*Xedit	*	*	*	*	*	*
[1G	Be-	1G	Be-	1r	.	1r	.
=63	=63	=63	=63	=63	=63	=63	=63
*	*	*lig	*	*	*	*	*
2G]	.	2G	-ne-	1r	.	1r	.
2F	.	2A	.	.	.	.	.
*	*	*Xlig	*	*	*	*	*
=64	=64	=64	=64	=64	=64	=64	=64
*	*	*lig	*	*	*	*	*
1E	.	2B	.	1r	.	1r	.
.	.	2c	.	.	.	.	.
=65	=65	=65	=65	=65	=65	=65	=65
2F	.	1d	.	1r	.	1r	.
[2D	-ne-	.	.	.	.	.	.
*	*	*Xlig	*	*	*	*	*
=66	=66	=66	=66	=66	=66	=66	=66
2D]	.	2.A	-di-	1r	.	1r	.
2F	.	.	.	.	.	.	.
.	.	4B	.	.	.	.	.
=67	=67	=67	=67	=67	=67	=67	=67
2E	.	4c	.	1r	.	1r	.
.	.	4d	.	.	.	.	.
*	*	*lig	*	*	*	*	*
2C	.	[2e	.	.	.	.	.
=68	=68	=68	=68	=68	=68	=68	=68
1D	.	2e]	.	1r	.	1r	.
.	.	[2d	.	.	.	.	.
=69	=69	=69	=69	=69	=69	=69	=69
1E	.	2d]	.	1r	.	1r	.
*	*	*Xlig	*	*	*	*	*
.	.	2c#i	.	.	.	.	.
!!LO:LB:g=original
=70	=70	=70	=70	=70	=70	=70	=70
2.D	-di-	1d	-ctus	1r	.	1r	.
4C	.	.	.	.	.	.	.
=71	=71	=71	=71	=71	=71	=71	=71
4BB	.	2r	.	1r	.	1r	.
4GG	.	.	.	.	.	.	.
2AA	.	2c	qui	.	.	.	.
=72	=72	=72	=72	=72	=72	=72	=72
1GG	-ctus	2.d	ve-	1r	.	1r	.
.	.	4c	.	.	.	.	.
=73	=73	=73	=73	=73	=73	=73	=73
1r	.	4B	.	2r	.	1r	.
.	.	4G	.	.	.	.	.
*	*	*	*	*	*Xedit	*	*
.	.	2A	.	2D	qui	.	.
=74	=74	=74	=74	=74	=74	=74	=74
*	*	*	*	*lig	*	*	*
*	*	*	*	*	*edit	*	*
1r	.	2G	-nit,	2E	ve-	1r	.
*	*	*lig	*	*	*	*	*
*	*	*	*edit	*	*	*	*
.	.	2D	qui	2F	.	.	.
*	*	*	*	*Xlig	*	*	*
=75	=75	=75	=75	=75	=75	=75	=75
2r	.	2E	ve-	2G	-nit,	1r	.
*	*	*Xlig	*	*	*	*	*
*	*	*lig	*	*	*	*	*
2D	qui	2F	.	2r	.	.	.
=76	=76	=76	=76	=76	=76	=76	=76
4BB	ve-	2G	-nit,	1r	.	1r	.
2C	.	.	.	.	.	.	.
*	*	*Xlig	*	*	*	*	*
.	.	2r	.	.	.	.	.
4AA	.	.	.	.	.	.	.
=77	=77	=77	=77	=77	=77	=77	=77
2GG	-nit,	2d	qui	2D	qui	1r	.
*	*	*	*	*lig	*	*	*
*	*	*	*	*	*Xedit	*	*
2r	.	4B	ve-	2E	ve-	.	.
.	.	[4c	.	.	.	.	.
!!LO:LB:g=original
=78	=78	=78	=78	=78	=78	=78	=78
1r	.	4c]	.	2F	.	2r	.
.	.	4A	.	.	.	.	.
*	*	*lig	*	*Xlig	*	*	*
.	.	2G	.	2G	-nit,	2g	Qui
=79	=79	=79	=79	=79	=79	=79	=79
*	*	*	*	*	*	*	*edit
1r	.	2A	.	1r	.	4e	ve-
.	.	.	.	.	.	2f	.
*	*	*Xlig	*	*	*	*	*
.	.	2B	.	.	.	.	.
.	.	.	.	.	.	4d	.
=80	=80	=80	=80	=80	=80	=80	=80
1r	.	2c	-nit,	1r	.	2c	.
.	.	4r	.	.	.	2d	-nit,
.	.	4B	qui	.	.	.	.
=81	=81	=81	=81	=81	=81	=81	=81
1r	.	2c	ve-	1r	.	4r	.
.	.	.	.	.	.	4e	qui
*	*	*	*	*	*	*	*Xedit
.	.	2d	-nit,	.	.	2f	ve-
=82	=82	=82	=82	=82	=82	=82	=82
1r	.	4r	.	1r	.	2e	-nit,
.	.	4c	qui	.	.	.	.
*	*	*lig	*	*	*	*	*
.	.	2d	ve-	.	.	4r	.
*	*	*	*	*	*	*	*edit
.	.	.	.	.	.	[4d	qui
=83	=83	=83	=83	=83	=83	=83	=83
1r	.	2e	-nit,	1r	.	4d]	.
.	.	.	.	.	.	4c#j	.
*	*	*Xlig	*	*	*	*	*
.	.	4r	.	.	.	4d	ve-
.	.	[4d	qui	.	.	4f	.
=84	=84	=84	=84	=84	=84	=84	=84
1r	.	4d]	.	1r	.	2e	-nit,
.	.	4c#j	.	.	.	.	.
.	.	4d	ve-	.	.	4r	.
.	.	4f	.	.	.	4d	qui
!!LO:LB:g=original
=85	=85	=85	=85	=85	=85	=85	=85
1r	.	2e	.	1r	.	4.g	ve-
.	.	.	.	.	.	8a	.
.	.	4d	.	.	.	4b	.
.	.	4c	.	.	.	[4a	.
=86	=86	=86	=86	=86	=86	=86	=86
1r	.	4d	.	2r	.	4a]	.
.	.	4B	.	.	.	2g	.
*	*	*	*	*	*edit	*	*
.	.	2A	.	2c	qui	.	.
.	.	.	.	.	.	4f#i	.
=87	=87	=87	=87	=87	=87	=87	=87
1r	.	1G	-nit,	4e	ve-	1g	-nit,
.	.	.	.	2d	.	.	.
.	.	.	.	4B	.	.	.
=88	=88	=88	=88	=88	=88	=88	=88
*	*edit	*	*	*	*	*	*
2F	qui	1r	.	2A	-nit,	1r	.
4A	ve-	.	.	4r	.	.	.
[4G	.	.	.	[4B	qui	.	.
=89	=89	=89	=89	=89	=89	=89	=89
4G]	.	1r	.	4B]	.	1r	.
4E	.	.	.	4c	.	.	.
2D	.	.	.	4B	.	.	.
.	.	.	.	[4d	ve-	.	.
=90	=90	=90	=90	=90	=90	=90	=90
2F	.	1r	.	8dL]	.	1r	.
.	.	.	.	8c	.	.	.
.	.	.	.	8B	.	.	.
.	.	.	.	8AJ	.	.	.
2E	.	.	.	2G	-nit,	.	.
=91	=91	=91	=91	=91	=91	=91	=91
1D	.	1r	.	4.F	qui	1r	.
.	.	.	.	8G	.	.	.
.	.	.	.	4A	.	.	.
.	.	.	.	[4B-i	ve-	.	.
!!LO:PB:g=original
=92	=92	=92	=92	=92	=92	=92	=92
*lig	*	*	*	*	*	*	*
2C	-nit	1r	.	4B-]	.	1r	.
.	.	.	.	2A	.	.	.
2BB-i	.	.	.	.	.	.	.
.	.	.	.	4G	.	.	.
=93	=93	=93	=93	=93	=93	=93	=93
1AA	.	1r	.	2.A	-nit,	1a	qui
*	*	*	*	*col	*	*	*
.	.	.	.	[4c	qui	.	.
*Xlig	*	*	*	*	*	*	*
=94	=94	=94	=94	=94	=94	=94	=94
1r	.	1r	.	8cL]	.	2g	.
.	.	.	.	8dJ	.	.	.
*	*	*	*	*Xcol	*	*	*
.	.	.	.	4e	.	.	.
.	.	.	.	4f	.	2f	.
.	.	.	.	4d	.	.	.
=95	=95	=95	=95	=95	=95	=95	=95
1r	.	1r	.	8eL	ve-	1e	ve-
.	.	.	.	8d	.	.	.
.	.	.	.	8c#i	.	.	.
.	.	.	.	8BJ	.	.	.
.	.	.	.	2c#i	.	.	.
=96	=96	=96	=96	=96	=96	=96	=96
1r	.	2.D	qui	1d	-nit,	1d	-nit,
.	.	[4F	ve-	.	.	.	.
=97	=97	=97	=97	=97	=97	=97	=97
*	*	*	*	*lig	*	*	*
1r	.	8FL]	.	2c	qui	1r	.
.	.	8GJ	.	.	.	.	.
.	.	4A	.	.	.	.	.
.	.	4B	.	2B	.	.	.
.	.	4G	.	.	.	.	.
=98	=98	=98	=98	=98	=98	=98	=98
1r	.	8AL	.	1A	.	2r	.
.	.	8G	.	.	.	.	.
.	.	8F#i	.	.	.	.	.
.	.	8EJ	.	.	.	.	.
.	.	2F#i	.	.	.	2c	qui
!!LO:LB:g=original
=99	=99	=99	=99	=99	=99	=99	=99
1r	.	1G	-nit	1G	.	4e	ve-
.	.	.	.	.	.	2d	.
.	.	.	.	.	.	4B	.
*	*	*	*	*Xlig	*	*	*
=100	=100	=100	=100	=100	=100	=100	=100
1r	.	1r	.	4.F	ve-	2A	-nit,
.	.	.	.	8G	.	.	.
.	.	.	.	4A	.	4r	.
.	.	.	.	[4G	.	[4B	qui
=101	=101	=101	=101	=101	=101	=101	=101
1r	.	1r	.	4G]	.	4B]	.
.	.	.	.	4E	.	8AL	.
.	.	.	.	.	.	8GJ	.
.	.	.	.	4.D	.	4A	.
.	.	.	.	.	.	4B	.
.	.	.	.	8E	.	.	.
=102	=102	=102	=102	=102	=102	=102	=102
1r	.	1r	.	4F	.	4A	ve-
.	.	.	.	2G	.	4G	.
.	.	.	.	.	.	2A	-nit
.	.	.	.	4F#i	.	.	.
=103	=103	=103	=103	=103	=103	=103	=103
2r	.	1r	.	1G	-nit	1r	.
*	*Xedit	*	*	*	*	*	*
2E	in	.	.	.	.	.	.
=104	=104	=104	=104	=104	=104	=104	=104
*	*	*	*	*	*	*	*Xedit
2.G	no-	1r	.	1r	.	2g	in
.	.	.	.	.	.	[2b	no-
4G	-mi-	.	.	.	.	.	.
=105	=105	=105	=105	=105	=105	=105	=105
*	*	*	*	*	*Xedit	*	*
1G	-ne	1r	.	2B	in	4b]	.
.	.	.	.	.	.	4b	-mi-
.	.	.	.	[2d	no-	2b	-ne
!!LO:LB:g=original
=106	=106	=106	=106	=106	=106	=106	=106
*	*	*	*Xedit	*	*	*	*
1r	.	2D	in	4d]	.	1r	.
.	.	.	.	4d	-mi-	.	.
.	.	[2F	no-	[2d	-ne	.	.
=107	=107	=107	=107	=107	=107	=107	=107
1r	.	4F]	.	4d]	.	1r	.
.	.	4F	-mi-	4c	.	.	.
.	.	2F	-ne	4A	.	.	.
*	*	*	*	*	*edit	*	*
.	.	.	.	[4c	Do-	.	.
=108	=108	=108	=108	=108	=108	=108	=108
*	*	*lig	*	*	*	*	*
1r	.	2F	Do-	4c]	.	1r	.
.	.	.	.	4d	-mi-	.	.
.	.	2G	.	2B	-ni,	.	.
*	*	*Xlig	*	*	*	*	*
=109	=109	=109	=109	=109	=109	=109	=109
1r	.	4A	.	4r	.	1r	.
.	.	2c	.	2A	Do-	.	.
*	*	*	*edit	*	*	*	*
.	.	4d	-mi-	4F	-mi-	.	.
=110	=110	=110	=110	=110	=110	=110	=110
1r	.	2B	-ni,	2G	-ni,	2r	.
.	.	4r	.	2r	.	4a	Do-
.	.	[4A	Do-	.	.	[4cc	.
=111	=111	=111	=111	=111	=111	=111	=111
1r	.	4A]	.	1r	.	4cc]	.
.	.	8GL	.	.	.	4dd	-mi-
.	.	8FJ	.	.	.	.	.
*	*	*	*	*	*	*	*edit
.	.	2G	.	.	.	2b	-ni,
=112	=112	=112	=112	=112	=112	=112	=112
1r	.	2A	.	4A	Do-	4r	.
.	.	.	.	2c	.	2a	Do-
.	.	4F	.	.	.	.	.
.	.	4D	.	4d	.	8gL	.
.	.	.	.	.	.	8fJ	.
=113	=113	=113	=113	=113	=113	=113	=113
1r	.	2E	-mi-	2B	.	2g	.
.	.	4F	.	4A	.	2a	.
.	.	[4D	-ni,	[4d	-mi-	.	.
!!LO:LB:g=original
=114	=114	=114	=114	=114	=114	=114	=114
*lig	*	*	*	*	*	*	*
2D	Do-	4D]	.	4d]	.	4f	.
.	.	2d	Do-	8cL	.	4d	.
.	.	.	.	8BJ	.	.	.
2A	.	.	.	2A	-ni,	2e	.
.	.	4c#i	.	.	.	.	.
*Xlig	*	*	*	*	*	*	*
=115	=115	=115	=115	=115	=115	=115	=115
4D	.	4.d	.	4r	.	4f	.
*	*	*	*	*	*Xedit	*	*
2G	.	.	.	2B	Do-	4d	.
.	.	8c	.	.	.	.	.
.	.	8BL	.	.	.	4.g	.
.	.	8AJ	.	.	.	.	.
[4C	-mi-	[4G	.	[4c	.	.	.
.	.	.	.	.	.	8f	.
=116	=116	=116	=116	=116	=116	=116	=116
4C]	.	4G]	.	8cL]	.	8eL	.
.	.	.	.	8BJ	.	8dJ	.
4D	.	4F	.	4.A	.	2d	-mi-
*	*	*	*Xedit	*	*	*	*
2AA	-ni.	2E	-mi-	.	.	.	.
.	.	.	.	8G	.	.	.
.	.	.	.	[4A	.	4c#i	.
=117	=117	=117	=117	=117	=117	=117	=117
*	*	*	*	*	*	*	*Xedit
1r	.	1D	-ni.	8AL]	.	1d	-ni.
.	.	.	.	8G	.	.	.
.	.	.	.	8F#i	.	.	.
.	.	.	.	8EJ	.	.	.
.	.	.	.	2F#i	-mi-	.	.
=118	=118	=118	=118	=118	=118	=118	=118
*lig	*	*	*	*	*	*	*
1GG	O-	1r	.	1G	-ni.	1r	.
=119	=119	=119	=119	=119	=119	=119	=119
1BB	.	1r	.	1r	.	1r	.
*Xlig	*	*	*	*	*	*	*
=120	=120	=120	=120	=120	=120	=120	=120
*lig	*	*	*	*	*	*	*
2C	-san-	1r	.	1G	O-	1r	.
2E	.	.	.	.	.	.	.
!!LO:PB:g=original
=121	=121	=121	=121	=121	=121	=121	=121
1D	.	1r	.	1B	.	1r	.
*Xlig	*	*	*	*	*	*	*
=122	=122	=122	=122	=122	=122	=122	=122
*	*	*	*	*lig	*	*	*
1C	-na,	1r	.	2c	-san-	1r	.
.	.	.	.	2e	.	.	.
=123	=123	=123	=123	=123	=123	=123	=123
*	*	*lig	*	*	*	*	*
1r	.	1D	O-	1d	.	1r	.
*	*	*	*	*Xlig	*	*	*
=124	=124	=124	=124	=124	=124	=124	=124
2r	.	1F	.	1A	-na,	1r	.
*	*edit	*	*	*	*	*	*
2D	o-	.	.	.	.	.	.
*	*	*Xlig	*	*	*	*	*
=125	=125	=125	=125	=125	=125	=125	=125
*	*	*lig	*	*	*	*lig	*
2BB	.	2G	-san-	2r	.	1d	O-
*	*	*	*	*	*edit	*	*
2GG	.	2B	.	[2d	o-	.	.
*	*	*Xlig	*	*	*	*	*
=126	=126	=126	=126	=126	=126	=126	=126
1D	-san-	1A	-na,	2d]	.	1f	.
.	.	.	.	2d	-san-	.	.
*	*	*	*	*	*	*Xlig	*
=127	=127	=127	=127	=127	=127	=127	=127
*	*	*	*	*	*	*lig	*
1GG	-na,	2r	.	2.d	-na,	2g	-san-
*	*	*	*edit	*	*	*	*
.	.	2G	o-	.	.	2b	.
.	.	.	.	4B	.	.	.
*	*	*	*	*	*	*Xlig	*
=128	=128	=128	=128	=128	=128	=128	=128
1r	.	4A	.	2c	.	1a	-na,
.	.	2F	-san-	.	.	.	.
.	.	.	.	4r	.	.	.
.	.	8EL	.	4A	o-	.	.
.	.	8FJ	.	.	.	.	.
!!LO:LB:g=original
=129	=129	=129	=129	=129	=129	=129	=129
2r	.	1G	-na	4.B	-san-	2r	.
.	.	.	.	8c	.	.	.
*	*	*	*	*	*	*	*edit
2GG	o-	.	.	4d	.	2g	o-
.	.	.	.	8cL	.	.	.
.	.	.	.	8BJ	.	.	.
=130	=130	=130	=130	=130	=130	=130	=130
1D	-san-	1r	.	1A	-na	4a	.
.	.	.	.	.	.	2f#i	-san-
.	.	.	.	.	.	8eL	.
.	.	.	.	.	.	8f#iJ	.
=131	=131	=131	=131	=131	=131	=131	=131
*	*	*	*Xedit	*	*	*	*
[1GG	-na	2G	in	1r	.	1g	-na
.	.	[2B	ex-	.	.	.	.
=132	=132	=132	=132	=132	=132	=132	=132
*	*	*	*	*	*	*	*Xedit
1GG]	.	4B]	.	1r	.	2.b	in
.	.	4c	.	.	.	.	.
.	.	2d	-cel-	.	.	.	.
.	.	.	.	.	.	4cc	ex-
=133	=133	=133	=133	=133	=133	=133	=133
*	*Xedit	*	*edit	*	*	*	*
2GG	in	2G	-sis,	2r	.	2dd	-cel-
*	*	*	*	*	*Xedit	*	*edit
2GG	ex-	4r	.	2G	in	2g	-sis,
.	.	[4B	in	.	.	.	.
=134	=134	=134	=134	=134	=134	=134	=134
4D	-cel-	4B]	.	4D	ex-	1r	.
4E	.	4c	ex-	4G	.	.	.
4D	.	4B	.	4F	.	.	.
4C	.	[4A	.	4E	.	.	.
=135	=135	=135	=135	=135	=135	=135	=135
4D	.	4A]	.	4F	.	1r	.
4BB	.	2G	-cel-	2D	-cel-	.	.
2AA	.	.	.	.	.	.	.
.	.	4F#i	.	4C	.	.	.
!!LO:LB:g=original
=136	=136	=136	=136	=136	=136	=136	=136
*	*edit	*	*	*	*edit	*	*
[1GG	-sis,	2G	-sis,	1D	-sis,	2g	in
.	.	2G	in	.	.	[2b	ex-
=137	=137	=137	=137	=137	=137	=137	=137
1GG]	.	2.B	ex-	1r	.	4b]	.
.	.	.	.	.	.	4cc	.
.	.	.	.	.	.	4.dd	-cel-
.	.	4c	.	.	.	.	.
.	.	.	.	.	.	8cc	.
=138	=138	=138	=138	=138	=138	=138	=138
*	*	*col	*	*	*	*	*
1r	.	4.d	-cel-	1r	.	4.a	.
.	.	8c	.	.	.	8b	.
*	*	*Xcol	*	*	*	*	*
.	.	4.A	.	.	.	4.cc	.
.	.	8B	.	.	.	8b	.
=139	=139	=139	=139	=139	=139	=139	=139
*	*	*col	*	*	*	*	*
2r	.	4.c	.	2r	.	2g	-sis,
.	.	8B	.	.	.	.	.
*	*	*Xcol	*	*	*	*	*
2G	in	2G	-sis,	4.d	in	4r	.
.	.	.	.	.	.	[4b	in
.	.	.	.	8e	.	.	.
=140	=140	=140	=140	=140	=140	=140	=140
4D	ex-	4d	in	4f	.	4b]	.
4C	.	4e	.	2g	ex-	4cc	.
4G	.	4d	ex-	.	.	4b	.
4A	.	4c	.	4e	.	[4a	ex-
=141	=141	=141	=141	=141	=141	=141	=141
4F	.	4d	.	4f	.	4a]	.
4G	.	4B	.	2.d	-cel-	2g	-cel-
2D	-cel-	2A	-cel-	.	.	.	.
.	.	.	.	.	.	4f#i	.
*	*Xedit	*	*Xedit	*	*Xedit	*	*Xedit
=142	=142	=142	=142	=142	=142	=142	=142
0GGl	-sis.	0Gl	-sis.	0dl	-sis.	0gl	-sis.
==	==	==	==	==	==	==	==
*-	*-	*-	*-	*-	*-	*-	*-
!!!system-decoration: [*]
!!!RDF**kern: j = editorial accidental, optional, paren up
!!!RDF**kern: i = editorial accidental
!!!RDF**kern: l = terminal long
!!!PTL: Gaspar van Weerbeke: Collected Works. II. Masses, Part 2
!!!ISBN: 978-1-59551-518-6
!!!PPR: American Institute of Musicology
!!!PC#: Corpus Mensurabilis Musicae 106/II.2
!!!PDT: 2018
!!!PED: Kolb, Paul
!!!YEC: Copyright 2016, Kolb, Paul
!!!YEM: CC-BY-NC 4.0 (https://creativecommons.org/licenses/by-nc/4.0/legalcode)
!!!EED: Zybina, Karina
!!!EEV: 2021/11/16
!!!title: @{OPR} &mdash; @{OTL}
